X:1
T:Marche Duvernay
M:6/8
K:D
|:"D"f2 f f2 f|fed dcB|A2 A A2 A|"D"Add "D#dim"ded|"Em7"c2 c c2 c
|[1"A"cfe fba|"D"f2 f f2 f|fAB "A7"cBA:|2"A7"caa age|"D"dAB "A7"cBA|d2 A "D#dim"A2 B:|]
|:"Em7"cBA cBA|"A7"cBA GFE|"A7"DFA dFB|A2 A "D#dim"A2 d|
"Em7"cBA cBA|"A7"cBA GFE|[1"D"DFA d2 F|A3 "D#dim"d3:|2DAB "A7"cBA:|]
%%text Transition -- play this instead of last measure above:
|D3 "A7"A3|
